src/WeatherTwentyOne/Resources/Images/fluent_weather_sunny_high_20_filled.svg

<svg width="40" height="40" viewBox="0 0 40 40" fill="none" xmlns="http://www.w3.org/2000/svg">
<path d="M18.9999 7V5C18.9999 4.73478 19.1052 4.48043 19.2928 4.29289C19.4803 4.10536 19.7347 4 19.9999 4C20.2651 4 20.5195 4.10536 20.707 4.29289C20.8945 4.48043 20.9999 4.73478 20.9999 5V7C20.9999 7.26522 20.8945 7.51957 20.707 7.70711C20.5195 7.89464 20.2651 8 19.9999 8C19.7347 8 19.4803 7.89464 19.2928 7.70711C19.1052 7.51957 18.9999 7.26522 18.9999 7Z" fill="url(#paint0_linear)"/>
<path d="M13.9999 16C13.9999 14.4087 14.632 12.8826 15.7572 11.7574C16.8825 10.6321 18.4086 10 19.9999 10C21.5912 10 23.1173 10.6321 24.2425 11.7574C25.3677 12.8826 25.9999 14.4087 25.9999 16C25.9999 17.5913 25.3677 19.1174 24.2425 20.2426C23.1173 21.3679 21.5912 22 19.9999 22C18.4086 22 16.8825 21.3679 15.7572 20.2426C14.632 19.1174 13.9999 17.5913 13.9999 16Z" fill="url(#paint1_linear)"/>
<path d="M18.9999 25V27C18.9999 27.2652 19.1052 27.5196 19.2928 27.7071C19.4803 27.8946 19.7347 28 19.9999 28C20.2651 28 20.5195 27.8946 20.707 27.7071C20.8945 27.5196 20.9999 27.2652 20.9999 27V25C20.9999 24.7348 20.8945 24.4804 20.707 24.2929C20.5195 24.1054 20.2651 24 19.9999 24C19.7347 24 19.4803 24.1054 19.2928 24.2929C19.1052 24.4804 18.9999 24.7348 18.9999 25Z" fill="url(#paint2_linear)"/>
<path d="M9 16C8.73478 16 8.48043 16.1054 8.29289 16.2929C8.10536 16.4804 8 16.7348 8 17C8 17.2652 8.10536 17.5196 8.29289 17.7071C8.48043 17.8946 8.73478 18 9 18H11C11.2652 18 11.5196 17.8946 11.7071 17.7071C11.8946 17.5196 12 17.2652 12 17C12 16.7348 11.8946 16.4804 11.7071 16.2929C11.5196 16.1054 11.2652 16 11 16H9Z" fill="url(#paint3_linear)"/>
<path d="M31 18H29C28.7348 18 28.4804 17.8946 28.2929 17.7071C28.1054 17.5196 28 17.2652 28 17C28 16.7348 28.1054 16.4804 28.2929 16.2929C28.4804 16.1054 28.7348 16 29 16H31C31.2652 16 31.5196 16.1054 31.7071 16.2929C31.8946 16.4804 32 16.7348 32 17C32 17.2652 31.8946 17.5196 31.7071 17.7071C31.5196 17.8946 31.2652 18 31 18Z" fill="url(#paint4_linear)"/>
<path d="M12.2919 11.708C12.3849 11.801 12.4953 11.8748 12.6168 11.9251C12.7382 11.9754 12.8684 12.0013 12.9999 12.0013C13.1314 12.0013 13.2616 11.9754 13.3831 11.9251C13.5046 11.8748 13.6149 11.801 13.7079 11.708C13.8009 11.6151 13.8746 11.5047 13.925 11.3832C13.9753 11.2617 14.0012 11.1315 14.0012 11C14.0012 10.8686 13.9753 10.7384 13.925 10.6169C13.8746 10.4954 13.8009 10.385 13.7079 10.292L11.7079 8.29204C11.6149 8.19907 11.5046 8.12531 11.3831 8.075C11.2616 8.02468 11.1314 7.99878 10.9999 7.99878C10.8684 7.99878 10.7382 8.02468 10.6168 8.075C10.4953 8.12531 10.3849 8.19907 10.2919 8.29204C10.1989 8.38502 10.1252 8.4954 10.0749 8.61687C10.0246 8.73835 9.99866 8.86855 9.99866 9.00004C9.99866 9.13153 10.0246 9.26173 10.0749 9.38321C10.1252 9.50469 10.1989 9.61507 10.2919 9.70804L12.2919 11.708Z" fill="url(#paint5_linear)"/>
<path d="M13.7079 22.2921C13.615 22.199 13.5047 22.1251 13.3832 22.0747C13.2617 22.0242 13.1315 21.9983 12.9999 21.9983C12.8684 21.9983 12.7381 22.0242 12.6167 22.0747C12.4952 22.1251 12.3848 22.199 12.2919 22.2921L10.2919 24.2921C10.1041 24.4799 9.99866 24.7345 9.99866 25.0001C9.99866 25.2656 10.1041 25.5203 10.2919 25.7081C10.4797 25.8959 10.7344 26.0013 10.9999 26.0013C11.2655 26.0013 11.5201 25.8959 11.7079 25.7081L13.7079 23.7081C13.8954 23.5206 14.0007 23.2662 14.0007 23.0011C14.0007 22.7359 13.8954 22.4816 13.7079 22.2941V22.2921Z" fill="url(#paint6_linear)"/>
<path d="M27.7079 11.708C27.6149 11.801 27.5046 11.8748 27.3831 11.9251C27.2616 11.9754 27.1314 12.0013 26.9999 12.0013C26.8684 12.0013 26.7382 11.9754 26.6168 11.9251C26.4953 11.8748 26.3849 11.801 26.2919 11.708C26.1989 11.6151 26.1252 11.5047 26.0749 11.3832C26.0246 11.2617 25.9987 11.1315 25.9987 11C25.9987 10.8686 26.0246 10.7384 26.0749 10.6169C26.1252 10.4954 26.1989 10.385 26.2919 10.292L28.2919 8.29204C28.4797 8.10427 28.7344 7.99878 28.9999 7.99878C29.2655 7.99878 29.5201 8.10427 29.7079 8.29204C29.8957 8.47982 30.0012 8.73449 30.0012 9.00004C30.0012 9.26559 29.8957 9.52027 29.7079 9.70804L27.7079 11.708Z" fill="url(#paint7_linear)"/>
<path d="M26.2919 22.2921C26.3848 22.199 26.4952 22.1251 26.6167 22.0747C26.7382 22.0242 26.8684 21.9983 26.9999 21.9983C27.1315 21.9983 27.2617 22.0242 27.3832 22.0747C27.5047 22.1251 27.615 22.199 27.7079 22.2921L29.7079 24.2921C29.8957 24.4799 30.0012 24.7345 30.0012 25.0001C30.0012 25.2656 29.8957 25.5203 29.7079 25.7081C29.5202 25.8959 29.2655 26.0013 28.9999 26.0013C28.7344 26.0013 28.4797 25.8959 28.2919 25.7081L26.2919 23.7081C26.1045 23.5206 25.9991 23.2662 25.9991 23.0011C25.9991 22.7359 26.1045 22.4816 26.2919 22.2941V22.2921Z" fill="url(#paint8_linear)"/>
<path d="M12.268 32.914C14.7976 32.2908 17.3948 31.9838 20 32C23.338 32 26.09 32.458 28.26 33.054C30.34 33.624 31.89 34.322 32.908 34.87C33.3913 35.1286 33.8588 35.4158 34.308 35.73L34.368 35.774L34.376 35.782C34.5834 35.9475 34.848 36.0238 35.1117 35.9942C35.3754 35.9646 35.6165 35.8314 35.782 35.624C35.9475 35.4166 36.0238 35.152 35.9942 34.8883C35.9645 34.6246 35.8314 34.3835 35.624 34.218L35.62 34.214L35.61 34.208L35.584 34.188L35.49 34.118C34.9656 33.7485 34.4193 33.4112 33.854 33.108C32.2454 32.2596 30.5468 31.5941 28.79 31.124C26.454 30.484 23.522 30 20 30C16.758 30 14.016 30.41 11.778 30.976C9.8742 31.4424 8.03213 32.1318 6.28996 33.03C5.80845 33.2817 5.33986 33.5574 4.88597 33.856C4.72745 33.9607 4.57204 34.0701 4.41997 34.184L4.38996 34.208L4.38196 34.214L4.37796 34.218H4.37596C4.16857 34.3835 4.0354 34.6246 4.00577 34.8883C3.97614 35.152 4.05247 35.4166 4.21796 35.624C4.38346 35.8314 4.62457 35.9646 4.88824 35.9942C5.15192 36.0238 5.41657 35.9475 5.62396 35.782L5.63596 35.772L5.69996 35.724C6.18687 35.3846 6.69452 35.076 7.21996 34.8C8.82252 33.9748 10.5169 33.3418 12.268 32.914V32.914Z" fill="url(#paint9_linear)"/>
<defs>
<linearGradient id="paint0_linear" x1="19.3414" y1="4.72318" x2="21.1204" y2="5.55702" gradientUnits="userSpaceOnUse">
<stop offset="0.10243" stop-color="#28C2D1"/>
<stop offset="0.925347" stop-color="#4931DE"/>
</linearGradient>
<linearGradient id="paint1_linear" x1="16.049" y1="12.1695" x2="22.9787" y2="18.6655" gradientUnits="userSpaceOnUse">
<stop offset="0.10243" stop-color="#28C2D1"/>
<stop offset="0.925347" stop-color="#4931DE"/>
</linearGradient>
<linearGradient id="paint2_linear" x1="19.3414" y1="24.7232" x2="21.1204" y2="25.557" gradientUnits="userSpaceOnUse">
<stop offset="0.10243" stop-color="#28C2D1"/>
<stop offset="0.925347" stop-color="#4931DE"/>
</linearGradient>
<linearGradient id="paint3_linear" x1="8.68306" y1="16.3616" x2="9.64423" y2="18.1636" gradientUnits="userSpaceOnUse">
<stop offset="0.10243" stop-color="#28C2D1"/>
<stop offset="0.925347" stop-color="#4931DE"/>
</linearGradient>
<linearGradient id="paint4_linear" x1="28.6831" y1="16.3616" x2="29.6442" y2="18.1636" gradientUnits="userSpaceOnUse">
<stop offset="0.10243" stop-color="#28C2D1"/>
<stop offset="0.925347" stop-color="#4931DE"/>
</linearGradient>
<linearGradient id="paint5_linear" x1="10.6821" y1="8.72241" x2="12.9935" y2="10.8891" gradientUnits="userSpaceOnUse">
<stop offset="0.10243" stop-color="#28C2D1"/>
<stop offset="0.925347" stop-color="#4931DE"/>
</linearGradient>
<linearGradient id="paint6_linear" x1="10.6821" y1="22.722" x2="12.9937" y2="24.8884" gradientUnits="userSpaceOnUse">
<stop offset="0.10243" stop-color="#28C2D1"/>
<stop offset="0.925347" stop-color="#4931DE"/>
</linearGradient>
<linearGradient id="paint7_linear" x1="26.6821" y1="8.72241" x2="28.9935" y2="10.8891" gradientUnits="userSpaceOnUse">
<stop offset="0.10243" stop-color="#28C2D1"/>
<stop offset="0.925347" stop-color="#4931DE"/>
</linearGradient>
<linearGradient id="paint8_linear" x1="26.6826" y1="22.722" x2="28.9942" y2="24.8884" gradientUnits="userSpaceOnUse">
<stop offset="0.10243" stop-color="#28C2D1"/>
<stop offset="0.925347" stop-color="#4931DE"/>
</linearGradient>
<linearGradient id="paint9_linear" x1="9.46411" y1="31.0848" x2="10.7998" y2="37.7623" gradientUnits="userSpaceOnUse">
<stop offset="0.10243" stop-color="#28C2D1"/>
<stop offset="0.925347" stop-color="#4931DE"/>
</linearGradient>
</defs>
</svg>

<svg width="40" height="40" fill="none" xmlns="http://www.w3.org/2000/svg">
    <path d="M19 7V5a1 1 0 112 0v2a1 1 0 01-2 0z" fill="url(#prefix__paint0_linear)" />
    <path d="M14 16a6 6 0 1112 0 6 6 0 01-12 0z" fill="url(#prefix__paint1_linear)" />
    <path d="M19 25v2a1 1 0 102 0v-2a1 1 0 00-2 0z" fill="url(#prefix__paint2_linear)" />
    <path d="M9 16a1 1 0 000 2h2a1 1 0 000-2H9z" fill="url(#prefix__paint3_linear)" />
    <path d="M31 18h-2a1 1 0 010-2h2a1 1 0 010 2z" fill="url(#prefix__paint4_linear)" />
    <path d="M12.292 11.708a1.001 1.001 0 101.416-1.416l-2-2a1.001 1.001 0 10-1.416 1.416l2 2z"
        fill="url(#prefix__paint5_linear)" />
    <path d="M13.708 22.292a1 1 0 00-1.416 0l-2 2a1.001 1.001 0 101.416 1.416l2-2a1 1 0 000-1.414v-.002z"
        fill="url(#prefix__paint6_linear)" />
    <path d="M27.708 11.708a1 1 0 11-1.416-1.416l2-2a1.001 1.001 0 011.416 1.416l-2 2z"
        fill="url(#prefix__paint7_linear)" />
    <path d="M26.292 22.292a1 1 0 011.416 0l2 2a1.001 1.001 0 11-1.416 1.416l-2-2a1 1 0 010-1.414v-.002z"
        fill="url(#prefix__paint8_linear)" />
    <path
        d="M12.268 32.914c2.53-.623 5.127-.93 7.732-.914 3.338 0 6.09.458 8.26 1.054 2.08.57 3.63 1.268 4.648 1.816.483.259.95.546 1.4.86l.06.044.008.008a1 1 0 001.248-1.564l-.004-.004-.01-.006-.026-.02-.094-.07c-.524-.37-1.07-.707-1.636-1.01a24.345 24.345 0 00-5.064-1.984C26.454 30.484 23.522 30 20 30c-3.242 0-5.984.41-8.222.976A24.912 24.912 0 006.29 33.03c-.482.252-.95.527-1.404.826a9.636 9.636 0 00-.466.328l-.03.024-.008.006-.004.004h-.002a1 1 0 001.248 1.564l.012-.01.064-.048c.487-.34.995-.648 1.52-.924a22.896 22.896 0 015.048-1.886z"
        fill="url(#prefix__paint9_linear)" />
    <defs>
        <linearGradient id="prefix__paint0_linear" x1="19.341" y1="4.723" x2="21.12" y2="5.557"
            gradientUnits="userSpaceOnUse">
            <stop offset=".102" stop-color="#28C2D1" />
            <stop offset=".925" stop-color="#4931DE" />
        </linearGradient>
        <linearGradient id="prefix__paint1_linear" x1="16.049" y1="12.169" x2="22.979" y2="18.666"
            gradientUnits="userSpaceOnUse">
            <stop offset=".102" stop-color="#28C2D1" />
            <stop offset=".925" stop-color="#4931DE" />
        </linearGradient>
        <linearGradient id="prefix__paint2_linear" x1="19.341" y1="24.723" x2="21.12" y2="25.557"
            gradientUnits="userSpaceOnUse">
            <stop offset=".102" stop-color="#28C2D1" />
            <stop offset=".925" stop-color="#4931DE" />
        </linearGradient>
        <linearGradient id="prefix__paint3_linear" x1="8.683" y1="16.362" x2="9.644" y2="18.164"
            gradientUnits="userSpaceOnUse">
            <stop offset=".102" stop-color="#28C2D1" />
            <stop offset=".925" stop-color="#4931DE" />
        </linearGradient>
        <linearGradient id="prefix__paint4_linear" x1="28.683" y1="16.362" x2="29.644" y2="18.164"
            gradientUnits="userSpaceOnUse">
            <stop offset=".102" stop-color="#28C2D1" />
            <stop offset=".925" stop-color="#4931DE" />
        </linearGradient>
        <linearGradient id="prefix__paint5_linear" x1="10.682" y1="8.722" x2="12.993" y2="10.889"
            gradientUnits="userSpaceOnUse">
            <stop offset=".102" stop-color="#28C2D1" />
            <stop offset=".925" stop-color="#4931DE" />
        </linearGradient>
        <linearGradient id="prefix__paint6_linear" x1="10.682" y1="22.722" x2="12.994" y2="24.888"
            gradientUnits="userSpaceOnUse">
            <stop offset=".102" stop-color="#28C2D1" />
            <stop offset=".925" stop-color="#4931DE" />
        </linearGradient>
        <linearGradient id="prefix__paint7_linear" x1="26.682" y1="8.722" x2="28.994" y2="10.889"
            gradientUnits="userSpaceOnUse">
            <stop offset=".102" stop-color="#28C2D1" />
            <stop offset=".925" stop-color="#4931DE" />
        </linearGradient>
        <linearGradient id="prefix__paint8_linear" x1="26.683" y1="22.722" x2="28.994" y2="24.888"
            gradientUnits="userSpaceOnUse">
            <stop offset=".102" stop-color="#28C2D1" />
            <stop offset=".925" stop-color="#4931DE" />
        </linearGradient>
        <linearGradient id="prefix__paint9_linear" x1="9.464" y1="31.085" x2="10.8" y2="37.762"
            gradientUnits="userSpaceOnUse">
            <stop offset=".102" stop-color="#28C2D1" />
            <stop offset=".925" stop-color="#4931DE" />
        </linearGradient>
    </defs>
</svg>
